X:198
T:It Is Well With My Soul
%%stretchlast false
M:4/4
L:1/4
K:Bb clef=C1
"^I"[B,,F,DF] [B,,F,DF]2 "^ii"[B,,F,CE] | "^I"[B,,F,B,D]/ "^I¹"[D,F,B,D]/ "^I²"[F,B,D]2 "^V7³"[E,F,A,C] | "^I¹"[D,F,B,D] "^V7²"[C,F,A,E] "^V²"[C,F,A,G] "^V"[F,,F,A,F] | "^V7"[F,,A,CE] "^I"[B,,B,D]3 | [B,,F,DF] "^vi"[G,,G,DB]2 "^♭vi°¹"[A,,_G,CA] | "^vi¹"[B,,G,B,G] [B,,B,DG]2 "^V²"[C,A,CF] | "^V/V"[C,G,C=E] "^V"[F,,A,CF]3 | "^V7"[F,A,EF] "^I"[B,,B,DB]2 [B,,B,DB] | "^Imaj7¹"[D,B,FA] "^IV"[E,B,EG]2 [E,B,G] | "^VI7²"[D,=B,FG] "^II"[C,C=Ec]2 [C,C=Ec] | "^V/V"[C,C=EB] "^V"[F,CFA]2 "^vi7³"[F,B,FG] | "^V"[F,A,F]/ "^V7³"[E,A,F]/ "^I¹"[D,B,FB]2 [D,F,B,B] | "^IV"[E,G,B,B] "^I²"[F,DB]2 "^V"[F,,F,CA]3/2 | "^I²"[F,,F,DB]/ "^I"[B,,F,DB]2 F | F F2 [B,,F,DF] | "^I¹"[D,B,DF] "^V"[F,A,CF]2 F | F F2 [F,,A,CF] | [F,,CEF] "^I"[B,,B,DF]2 [B,,F,B,D] | [B,,B,DF] "^IV"[E,B,EG]2 [E,B,EG] | [E,G,EB] "^I²"[F,DB]2 "^V"[F,,F,CA]3/2 | "^I²"[F,,F,DB]/ "^I"[B,,F,DB]3 |]
